X: 29
T:Croesaw Gwraig y Ty
T:The Welcome of the Hostess
M:6/8
L:1/8
Q:130
C:Trad
S:51 Welsh Airs
R:Jig
A:Wales
H:From a facsimile c.1840: A Choice Collection of Fifty-One Welsh Airs
H:adapted for The Harp, Piano-Forte, Harpsichord,
H:Violin, or Flute by Edward Jones
H:"Harper to His Late Majesty King George IV, when
H:Prince of Wales".
Z:brian_martin12345@yahoo.com
K:D
"Cheerful"
z|(d>ed) cBA|(B>cB) AGF|(G>AG) FED|E3E3|!
FEF DEF|A^GA Bcd|cBA EA^G|A3A2:||!
d|cBA ABc|d3F3|GFG BAG|(G3F3)|!
A>BA G>AG|F>GFE2A|FED CDE|D3D2:||

